build/service/MenuSolid.svg

<svg xmlns="http://www.w3.org/2000/svg" fill="none" viewBox="0 0 24 24" focusable="false"><path d="M0 0H24V24H0z"/><path fill="#74767B" fill-rule="evenodd" d="M12 3C7.02944 3 3 7.02944 3 12C3 16.9706 7.02944 21 12 21C16.9706 21 21 16.9706 21 12C21 7.02944 16.9706 3 12 3ZM8.60304 7.99999C8.24406 7.99999 7.95304 8.29101 7.95304 8.64999C7.95304 9.00898 8.24406 9.29999 8.60304 9.29999L15.3969 9.29999C15.7559 9.29999 16.0469 9.00898 16.0469 8.64999C16.0469 8.291 15.7559 7.99999 15.3969 7.99999L8.60304 7.99999ZM8.60304 14.6959C8.24406 14.6959 7.95304 14.9869 7.95304 15.3459C7.95304 15.7049 8.24406 15.9959 8.60304 15.9959L15.3969 15.9959C15.7559 15.9959 16.0469 15.7049 16.0469 15.3459C16.0469 14.9869 15.7559 14.6959 15.3969 14.6959L8.60304 14.6959ZM7.95304 12C7.95304 11.641 8.24406 11.35 8.60304 11.35L15.3969 11.35C15.7559 11.35 16.0469 11.641 16.0469 12C16.0469 12.359 15.7559 12.65 15.3969 12.65L8.60304 12.65C8.24406 12.65 7.95304 12.359 7.95304 12Z"/></svg>

<svg xmlns="http://www.w3.org/2000/svg" fill="none" viewBox="0 0 24 24" focusable="false"><path fill="#74767B" fill-rule="evenodd" d="M12 3c-4.98 0-9 4.02-9 9 0 4.97 4.02 9 9 9a9 9 0 0 0 9-9c0-4.98-4.03-9-9-9M8.6 8c-.36 0-.65.29-.65.64 0 .36.29.65.65.65h6.79c.36 0 .65-.29.65-.65 0-.35-.29-.64-.65-.64zm0 6.69c-.36 0-.65.29-.65.65s.29.65.65.65h6.79c.36 0 .65-.29.65-.65s-.29-.65-.65-.65zM7.95 12c0-.36.29-.65.65-.65h6.79c.36 0 .65.29.65.65 0 .35-.29.65-.65.65H8.6c-.36 0-.65-.3-.65-.65"/></svg>
